!!!COM: Frank Martin
!!!OTL: [T541_Mai-w11p25h9m1-12]
**kern	**kern	**dynam	**kern	**dynam	**kern	**dynam
*grp:A	*grp:A	*grp:A	*grp:B	*grp:B	*grp:B	*grp:B
*part3	*part3	*	*part2	*part2	*part1	*part1
*staff4	*staff3	*	*staff2	*	*staff1	*
*I"Piano	*	*	*I"Violoncello	*	*I"Violin	*
*I'Pno.	*	*	*I'Vc.	*	*I'Vln.	*
!!pagebreak:original
*clefF4	*clefG2	*	*clefC4	*	*clefG2	*
*k[f#c#g#d#]	*k[f#c#g#d#]	*	*k[f#c#g#d#]	*	*k[f#c#g#d#]	*
*E:	*E:	*	*E:	*	*E:	*
*M6/8	*M6/8	*	*M6/8	*	*M6/8	*
!!LO:REH:t=9
=1	=1	=1	=1	=1	=1	=1
!	!	!	!	!	!LO:TX:t=[quarter-dot]=144	!
!	!	!LO:DY:ed=brack	!	!LO:DY:ed=brack	!	!LO:DY:ed=brack
!	!	!LO:DY:t=meno %s sempre staccato	!	!LO:DY:t=meno %s	!	!LO:DY:t=meno %s
8ryy	8ryy	4ryy	8BL	p	8ff#L	p
8ryy	8ryy	.	8B	.	8ee	.
8ryy	8ryy	.	8BJ	.	8dd#J	.
4ryy	8ryy	.	8BL	.	8eeL	.
.	8ryy	.	8B	.	8dd#	.
8ryy	8ryy	.	8BJ	.	8cc#J	.
=2	=2	=2	=2	=2	=2	=2
8ryy	8ryy	.	8BL	.	8dd#L	.
8ryy	8ryy	.	8B	.	8cc#	.
8ryy	8ryy	.	8BJ	.	8bJ	.
8ryy	8ryy	.	8BL	.	8cc#L	.
8ryy	8ryy	.	8B	.	8a#X	.
8ryy	8ryy	.	8BJ	.	8f#J	.
=3	=3	=3	=3	=3	=3	=3
4ryy	8ryy	.	8BL	.	8f#L	.
.	8ryy	.	8c#	.	8f#	.
8ryy	8ryy	.	8d#J	.	8f#J	.
8ryy	8ryy	.	4.e^	.	4.an^	.
8ryy	8ryy	.	.	.	.	.
8ryy	8ryy	.	.	.	.	.
=4	=4	=4	=4	=4	=4	=4
8ryy	8ryy	.	8BL	.	8f#L	.
8ryy	8ryy	.	8c#	.	8f#	.
8ryy	8ryy	.	8d#J	.	8f#J	.
8ryy	8ryy	.	4.e^	.	4.a^	.
8ryy	8ryy	.	.	.	.	.
8ryy	8ryy	.	.	.	.	.
=5	=5	=5	=5	=5	=5	=5
8ryy	8ryy	.	8BL	.	8ff#L	.
8ryy	8ryy	.	8B	.	8ee	.
8ryy	8ryy	.	8BJ	.	8dd#J	.
4ryy	4ryy	.	8BL	.	8eeL	.
.	.	.	8B	.	8dd#	.
8ryy	8ryy	.	8BJ	.	8cc#J	.
=6	=6	=6	=6	=6	=6	=6
4ryy	4ryy	.	8BL	.	8dd#L	.
.	.	.	8B	.	8cc#	.
8ryy	8ryy	.	8BJ	.	8bJ	.
4.ryy	4.ryy	.	8BL	.	8cc#L	.
.	.	.	8B	.	8a#X	.
.	.	.	8BJ	.	8f#J	.
!!linebreak:original
=7	=7	=7	=7	=7	=7	=7
4ryy	4ryy	.	8BL	.	8f#L	.
.	.	.	8c#	.	8f#	.
8ryy	8ryy	.	8d#J	.	8f#J	.
8ryy	8ryy	.	4.e^	.	4.an^	.
8ryy	8ryy	.	.	.	.	.
8ryy	8ryy	.	.	.	.	.
=8	=8	=8	=8	=8	=8	=8
8ryy	8ryy	.	8BL	.	8f#L	.
8ryy	8ryy	.	8c#	.	8f#	.
8ryy	8ryy	.	8d#J	.	8f#J	.
8ryy	8ryy	.	8e^L	.	8a^L	.
8ryy	8ryy	.	8d#	.	8f#	.
8ryy	8ryy	.	8c#J	.	8eJ	.
=9	=9	=9	=9	=9	=9	=9
8ryy	8ryy	.	4B^	.	(8f#L	.
8ryy	8ryy	.	.	.	8b')	.
8ryy	8ryy	.	4c#^	.	8b'J	.
4ryy	4ryy	.	.	.	(8f#L	.
.	.	.	4d#^	.	8b')	.
8ryy	8ryy	.	.	.	8b'J	.
=10	=10	=10	=10	=10	=10	=10
8ryy	8r^^yy	.	([4.e^	.	(8.cc#L	.
8ryy	8ryy	.	.	.	.	.
.	.	.	.	.	16dd#L	.
8ryy	8ryy	.	.	.	16cc#	.
.	.	.	.	.	16bJJ)	.
8ryy	8ryy	.	8eL]	.	(4an^	.
8ryy	8ryy	.	8d#	.	.	.
8ryy	8ryy	.	8c#J)	.	8b)	.
=11	=11	=11	=11	=11	=11	=11
8ryy	8ryy	.	4B^	.	(8cc#L	.
8ryy	8ryy	.	.	.	8ff#)	.
8ryy	8ryy	.	4c#^	.	8ff#'J	.
4ryy	4ryy	.	.	.	(8eeL	.
.	.	.	4d#^	.	8cc#')	.
8ryy	8ryy	.	.	.	8bJ	.
=12	=12	=12	=12	=12	=12	=12
8r^^yy	8r^^yy	.	(8e^L	.	(8cc#L	.
8ryy	8ryy	.	8d#)	.	8b)	.
8ryy	8ryy	.	8c#'J	.	8b'J	.
8ryy	8ryy	.	8B'	.	8b'	.
8ryy	8ryy	.	8r	.	8r	.
8ryy	8ryy	.	8r	.	8r	.
=	=	=	=	=	=	=
*-	*-	*-	*-	*-	*-	*-
!!!system-decoration: s1,s2[({(s3,s4)})]
